X:1075
L:1/8
Q:1/2=100
M:2/2
K:C
 C |[K:G]"^78" GE | D3 E G3 A | BGdG B2 AG | G2 E2 (DE)(FG) | AFdF E3 G | D3 E G3 A | BABd efge | 
 (dc)(BA) (GF)(GA) | B2 G2 G2 :: d2 | gfga"^1" g/a/b ag | fefg"^1" f/g/a gf | edef gfed | 
 B2 e>f e2 eg | dBAG d2 Bd | edef g2 fe | dcBA (GF)GA | B2 G2 G2 :|

